;FLAVOR:Marlin
;TIME:3973
;Filament used: 1.06601m
;Layer height: 0.12
;MINX:70.702
;MINY:96.7
;MINZ:0.12
;MAXX:138.296
;MAXY:142.299
;MAXZ:24
;Generated with Cura_SteamEngine 4.5.0
M140 S50
M105
M190 S50
M104 S200
M105
M109 S200
M82 ;absolute extrusion mode
; Ender 3 Custom Start G-code
G92 E0 ; Reset Extruder
G28 ; Home all axes
G1 Z2.0 F3000 ; Move Z Axis up little to prevent scratching of Heat Bed
G1 X0.1 Y20 Z0.3 F5000.0 ; Move to start position
G1 X0.1 Y200.0 Z0.3 F1500.0 E15 ; Draw the first line
G1 X0.4 Y200.0 Z0.3 F5000.0 ; Move to side a little
G1 X0.4 Y20 Z0.3 F1500.0 E30 ; Draw the second line
G92 E0 ; Reset Extruder
G1 Z2.0 F3000 ; Move Z Axis up little to prevent scratching of Heat Bed
G1 X5 Y20 Z0.3 F5000.0 ; Move over to prevent blob squish
G92 E0
G92 E0
G1 F2700 E-5
;LAYER_COUNT:200
;LAYER:0
M107
G0 F6000 X78.986 Y104.893 Z0.12
;TYPE:SKIRT
G1 F2700 E0
G1 F1200 X79.438 Y104.56 E0.0112
G1 X79.9 Y104.239 E0.02243
G1 X80.397 Y103.914 E0.03428
G1 X80.852 Y103.633 E0.04495
G1 X81.294 Y103.374 E0.05518
G1 X81.503 Y103.258 E0.05995
G1 X81.922 Y103.037 E0.0694
G1 X82.629 Y102.688 E0.08513
G1 X83.128 Y102.461 E0.09607
G1 X83.578 Y102.269 E0.10584
G1 X83.926 Y102.126 E0.11335
G1 X84.902 Y101.777 E0.13403
G1 X85.851 Y101.488 E0.15383
G1 X86.511 Y101.307 E0.16749
G1 X87.041 Y101.184 E0.17834
G1 X87.49 Y101.091 E0.18749
G1 X88.105 Y100.978 E0.19997
G1 X89 Y100.855 E0.218
G1 X89.54 Y100.796 E0.22884
G1 X90.166 Y100.743 E0.24138
G1 X90.459 Y100.726 E0.24724
G1 X93.222 Y100.601 E0.30243
G1 X95.721 Y100.416 E0.35244
G1 X98.217 Y100.16 E0.40251
G1 X100.729 Y99.831 E0.45307
G1 X103.228 Y99.43 E0.50357
G1 X105.677 Y98.967 E0.55331
G1 X108.128 Y98.431 E0.60338
G1 X110.597 Y97.818 E0.65415
G1 X111.369 Y97.605 E0.67013
G1 X112.39 Y97.338 E0.69119
G1 X112.845 Y97.229 E0.70053
G1 X113.427 Y97.103 E0.71241
G1 X114.05 Y96.987 E0.72506
G1 X114.356 Y96.939 E0.73124
G1 X114.831 Y96.875 E0.7408
G1 X115.471 Y96.803 E0.75366
G1 X116.157 Y96.745 E0.76739
G1 X116.553 Y96.723 E0.77531
G1 X117.024 Y96.706 E0.78471
G1 X117.57 Y96.7 E0.79561
G1 X117.791 Y96.703 E0.80002
G1 X118.668 Y96.737 E0.81754
G1 X119.122 Y96.766 E0.82662
G1 X119.64 Y96.812 E0.83699
G1 X120.207 Y96.879 E0.84839
G1 X120.678 Y96.945 E0.85788
G1 X121.286 Y97.048 E0.87018
G1 X121.559 Y97.102 E0.87574
G1 X121.956 Y97.188 E0.88384
G1 X122.637 Y97.349 E0.89781
G1 X123.191 Y97.495 E0.90924
G1 X123.458 Y97.573 E0.91479
G1 X123.761 Y97.667 E0.92112
G1 X124.212 Y97.813 E0.93058
G1 X124.897 Y98.06 E0.94512
G1 X125.331 Y98.233 E0.95444
G1 X125.69 Y98.384 E0.96221
G1 X126.117 Y98.572 E0.97152
G1 X126.531 Y98.764 E0.98063
G1 X126.802 Y98.897 E0.98665
G1 X127.129 Y99.064 E0.99398
G1 X127.555 Y99.291 E1.00361
G1 X128.081 Y99.59 E1.01569
G1 X128.671 Y99.956 E1.02954
G1 X129.253 Y100.341 E1.04347
G1 X129.665 Y100.63 E1.05351
G1 X130.002 Y100.878 E1.06186
G1 X130.308 Y101.112 E1.06955
G1 X130.653 Y101.385 E1.07833
G1 X131.252 Y101.895 E1.09403
G1 X131.733 Y102.338 E1.10708
G1 X132.052 Y102.642 E1.11587
G1 X132.406 Y102.995 E1.12585
G1 X132.865 Y103.481 E1.13919
G1 X133.174 Y103.824 E1.1484
G1 X133.649 Y104.389 E1.16313
G1 X133.996 Y104.837 E1.17444
G1 X134.385 Y105.36 E1.18745
G1 X134.677 Y105.772 E1.19753
G1 X134.816 Y105.978 E1.20249
G1 X135 Y106.26 E1.2092
G1 X135.267 Y106.683 E1.21919
G1 X135.654 Y107.346 E1.23451
G1 X135.862 Y107.733 E1.24327
G1 X136.033 Y108.065 E1.25073
G1 X136.258 Y108.52 E1.26086
G1 X136.459 Y108.948 E1.27029
G1 X136.723 Y109.556 E1.28352
G1 X136.849 Y109.863 E1.29014
G1 X137.201 Y110.853 E1.31111
G1 X137.57 Y112.072 E1.33653
G1 X137.777 Y112.86 E1.35279
G1 X137.859 Y113.227 E1.36029
G1 X138.004 Y114.009 E1.37616
G1 X138.096 Y114.628 E1.38865
G1 X138.15 Y115.043 E1.397
G1 X138.2 Y115.498 E1.40614
G1 X138.254 Y116.13 E1.4188
G1 X138.277 Y116.539 E1.42697
G1 X138.294 Y117.001 E1.4362
G1 X138.296 Y117.734 E1.45082
G1 X138.279 Y118.302 E1.46217
G1 X138.261 Y118.684 E1.4698
G1 X138.232 Y119.132 E1.47876
G1 X138.173 Y119.788 E1.4919
G1 X138.119 Y120.229 E1.50077
G1 X138.056 Y120.671 E1.50968
G1 X137.95 Y121.289 E1.52219
G1 X137.851 Y121.781 E1.5322
G1 X137.755 Y122.211 E1.541
G1 X137.637 Y122.696 E1.55096
G1 X137.526 Y123.118 E1.55967
G1 X137.46 Y123.349 E1.56446
G1 X137.347 Y123.72 E1.5722
G1 X137.181 Y124.232 E1.58294
G1 X136.927 Y124.933 E1.59782
G1 X136.761 Y125.347 E1.60672
G1 X136.622 Y125.677 E1.61387
G1 X136.441 Y126.089 E1.62285
G1 X136.256 Y126.489 E1.63164
G1 X136.114 Y126.78 E1.6381
G1 X135.933 Y127.134 E1.64604
G1 X135.702 Y127.567 E1.65583
G1 X135.402 Y128.094 E1.66793
G1 X134.907 Y128.88 E1.68647
G1 X134.661 Y129.249 E1.69532
G1 X134.374 Y129.658 E1.70529
G1 X134.128 Y129.993 E1.71359
G1 X133.878 Y130.32 E1.7218
G1 X133.605 Y130.664 E1.73056
G1 X133.128 Y131.225 E1.74526
G1 X132.65 Y131.746 E1.75937
G1 X132.346 Y132.064 E1.76815
G1 X132.021 Y132.391 E1.77735
G1 X131.785 Y132.618 E1.78388
G1 X131.515 Y132.869 E1.79124
G1 X131.167 Y133.182 E1.80058
G1 X130.607 Y133.653 E1.81518
G1 X130.179 Y133.984 E1.82598
G1 X129.633 Y134.39 E1.83956
G1 X129.211 Y134.688 E1.84987
G1 X128.728 Y135.008 E1.86143
G1 X128.322 Y135.264 E1.87101
G1 X127.691 Y135.633 E1.8856
G1 X127.303 Y135.843 E1.8944
G1 X126.943 Y136.029 E1.90249
G1 X126.486 Y136.255 E1.91266
G1 X126.075 Y136.448 E1.92172
G1 X125.726 Y136.603 E1.92934
G1 X125.108 Y136.86 E1.9427
G1 X124.473 Y137.097 E1.95623
G1 X124.034 Y137.245 E1.96547
G1 X123.636 Y137.371 E1.9738
G1 X123.101 Y137.529 E1.98493
G1 X122.663 Y137.648 E1.99399
G1 X122.408 Y137.712 E1.99924
G1 X122.047 Y137.796 E2.00664
G1 X121.569 Y137.899 E2.01639
G1 X120.904 Y138.021 E2.02989
G1 X120.555 Y138.074 E2.03693
G1 X120.116 Y138.132 E2.04577
G1 X119.512 Y138.199 E2.05789
G1 X118.611 Y138.27 E2.07593
G1 X114.726 Y138.468 E2.15356
G1 X112.236 Y138.682 E2.20343
G1 X109.75 Y138.966 E2.25337
G1 X107.232 Y139.326 E2.30413
G1 X104.762 Y139.75 E2.35414
G1 X102.309 Y140.244 E2.40408
G1 X99.892 Y140.801 E2.45357
G1 X98.03 Y141.299 E2.49204
G1 X96.496 Y141.692 E2.52364
G1 X95.986 Y141.81 E2.53409
G1 X95.394 Y141.932 E2.54615
G1 X94.744 Y142.045 E2.55931
G1 X94.418 Y142.092 E2.56589
G1 X94.048 Y142.139 E2.57333
G1 X93.465 Y142.203 E2.58503
G1 X92.886 Y142.254 E2.59663
G1 X92.448 Y142.278 E2.60539
G1 X91.89 Y142.298 E2.61653
G1 X91.123 Y142.299 E2.63184
G1 X90.505 Y142.274 E2.64418
G1 X89.822 Y142.228 E2.65784
G1 X89.334 Y142.184 E2.66762
G1 X88.786 Y142.12 E2.67863
G1 X88.311 Y142.053 E2.6882
G1 X87.582 Y141.925 E2.70297
G1 X87.083 Y141.82 E2.71315
G1 X86.723 Y141.738 E2.72052
G1 X85.784 Y141.499 E2.73985
G1 X85.259 Y141.342 E2.75079
G1 X84.766 Y141.181 E2.76114
G1 X84.262 Y141.002 E2.77181
G1 X83.984 Y140.896 E2.77775
G1 X83.526 Y140.71 E2.78761
G1 X82.772 Y140.378 E2.80405
G1 X82.537 Y140.268 E2.80923
G1 X82.089 Y140.045 E2.81922
G1 X81.483 Y139.727 E2.83288
G1 X80.927 Y139.415 E2.8456
G1 X80.744 Y139.305 E2.84986
G1 X80.379 Y139.076 E2.85846
G1 X79.891 Y138.756 E2.87011
G1 X79.41 Y138.422 E2.88179
G1 X78.969 Y138.098 E2.89271
G1 X78.619 Y137.83 E2.90151
G1 X78.386 Y137.644 E2.90746
G1 X77.981 Y137.303 E2.91802
G1 X77.63 Y136.994 E2.92736
G1 X77.339 Y136.729 E2.93521
G1 X77.025 Y136.432 E2.94384
G1 X76.607 Y136.015 E2.95562
G1 X76.001 Y135.37 E2.97328
G1 X75.81 Y135.156 E2.979
G1 X75.383 Y134.647 E2.99226
G1 X75.083 Y134.267 E3.00192
G1 X74.756 Y133.834 E3.01275
G1 X74.551 Y133.547 E3.01979
G1 X74.229 Y133.082 E3.03108
G1 X73.943 Y132.648 E3.04145
G1 X73.665 Y132.203 E3.05192
G1 X73.331 Y131.63 E3.06516
G1 X73.207 Y131.402 E3.07034
G1 X73.027 Y131.057 E3.0781
G1 X72.601 Y130.183 E3.09751
G1 X72.457 Y129.863 E3.10451
G1 X72.257 Y129.395 E3.11466
G1 X72.121 Y129.063 E3.12182
G1 X71.777 Y128.098 E3.14227
G1 X71.488 Y127.149 E3.16207
G1 X71.322 Y126.54 E3.17466
G1 X71.254 Y126.26 E3.18041
G1 X71.171 Y125.891 E3.18796
G1 X71.067 Y125.388 E3.19821
G1 X70.945 Y124.684 E3.21247
G1 X70.868 Y124.105 E3.22413
G1 X70.799 Y123.488 E3.23652
G1 X70.746 Y122.886 E3.24858
G1 X70.722 Y122.447 E3.25735
G1 X70.702 Y121.887 E3.26853
G1 X70.702 Y121.098 E3.28428
G1 X70.727 Y120.506 E3.2961
G1 X70.771 Y119.836 E3.3095
G1 X70.813 Y119.363 E3.31898
G1 X70.877 Y118.806 E3.33017
G1 X70.951 Y118.279 E3.34079
G1 X71.09 Y117.496 E3.35666
G1 X71.199 Y116.999 E3.36681
G1 X71.36 Y116.322 E3.3807
G1 X71.529 Y115.69 E3.39375
G1 X71.653 Y115.277 E3.40236
G1 X71.808 Y114.798 E3.4124
G1 X72.009 Y114.232 E3.42439
G1 X72.123 Y113.936 E3.43072
G1 X72.294 Y113.517 E3.43975
G1 X72.511 Y113.016 E3.45065
G1 X72.774 Y112.453 E3.46305
G1 X73.139 Y111.733 E3.47916
G1 X73.305 Y111.421 E3.48621
G1 X73.627 Y110.857 E3.49917
G1 X73.757 Y110.644 E3.50415
G1 X73.957 Y110.328 E3.51161
G1 X74.265 Y109.86 E3.52279
G1 X74.602 Y109.376 E3.53456
G1 X75.103 Y108.704 E3.55129
G1 X75.292 Y108.461 E3.55743
G1 X75.826 Y107.825 E3.57401
G1 X76.2 Y107.415 E3.58508
G1 X76.54 Y107.053 E3.59499
G1 X76.983 Y106.608 E3.60752
G1 X77.61 Y106.019 E3.62469
G1 X77.814 Y105.836 E3.63016
G1 X78.43 Y105.323 E3.64616
G1 X78.986 Y104.893 E3.66018
G0 F6000 X79.23 Y105.209
G1 F1200 X79.667 Y104.889 E3.67099
G1 X80.129 Y104.568 E3.68222
G1 X80.607 Y104.254 E3.69363
G1 X81.062 Y103.973 E3.7043
G1 X81.488 Y103.724 E3.71415
G1 X81.697 Y103.608 E3.71892
G1 X82.101 Y103.395 E3.72804
G1 X82.798 Y103.051 E3.74355
G1 X83.286 Y102.828 E3.75425
G1 X83.73 Y102.638 E3.76389
G1 X84.078 Y102.495 E3.7714
G1 X85.019 Y102.16 E3.79133
G1 X85.968 Y101.871 E3.81113
G1 X86.612 Y101.694 E3.82446
G1 X87.122 Y101.575 E3.83491
G1 X87.571 Y101.482 E3.84406
G1 X88.173 Y101.372 E3.85627
G1 X88.868 Y101.273 E3.87028
G1 X89.584 Y101.194 E3.88466
G1 X90.195 Y101.142 E3.89689
G1 X90.477 Y101.126 E3.90253
G1 X93.236 Y101.001 E3.95765
G1 X95.752 Y100.815 E4.00799
G1 X98.277 Y100.556 E4.05865
G1 X100.773 Y100.229 E4.10888
G1 X103.294 Y99.825 E4.15983
G1 X105.764 Y99.358 E4.21
G1 X108.204 Y98.824 E4.25984
G1 X110.695 Y98.206 E4.31106
G1 X111.47 Y97.992 E4.32711
G1 X112.491 Y97.725 E4.34817
G1 X112.93 Y97.62 E4.35717
G1 X113.512 Y97.494 E4.36906
G1 X114.112 Y97.382 E4.38124
G1 X114.418 Y97.334 E4.38742
G1 X114.876 Y97.272 E4.39664
G1 X115.516 Y97.2 E4.40949
G1 X116.186 Y97.144 E4.42291
G1 X116.568 Y97.123 E4.43055
G1 X117.039 Y97.106 E4.43995
G1 X117.565 Y97.1 E4.45045
G1 X117.786 Y97.103 E4.45486
G1 X118.391 Y97.123 E4.46694
G1 X119.097 Y97.166 E4.48106
G1 X119.596 Y97.209 E4.49105
G1 X120.152 Y97.276 E4.50223
G1 X120.623 Y97.342 E4.51172
G1 X121.209 Y97.44 E4.52357
G1 X121.482 Y97.494 E4.52913
G1 X121.864 Y97.577 E4.53693
G1 X122.545 Y97.738 E4.55089
G1 X123.078 Y97.879 E4.5619
G1 X123.638 Y98.047 E4.57356
G1 X124.089 Y98.193 E4.58302
G1 X124.749 Y98.431 E4.59702
G1 X125.183 Y98.604 E4.60635
G1 X125.529 Y98.75 E4.61384
G1 X125.956 Y98.938 E4.62315
G1 X126.355 Y99.123 E4.63193
G1 X126.626 Y99.256 E4.63795
G1 X126.941 Y99.417 E4.64501
G1 X127.367 Y99.644 E4.65465
G1 X127.874 Y99.933 E4.66629
G1 X128.456 Y100.294 E4.67996
G1 X129.03 Y100.674 E4.6937
G1 X129.428 Y100.953 E4.7034
G1 X129.765 Y101.201 E4.71175
G1 X130.06 Y101.426 E4.71915
G1 X130.405 Y101.699 E4.72793
G1 X130.982 Y102.19 E4.74305
G1 X131.457 Y102.627 E4.75593
G1 X131.776 Y102.931 E4.76472
G1 X132.117 Y103.271 E4.77433
G1 X132.346 Y103.51 E4.78094
G1 X132.567 Y103.749 E4.78744
G1 X132.876 Y104.092 E4.79665
G1 X133.335 Y104.636 E4.81085
G1 X133.675 Y105.076 E4.82195
G1 X134.064 Y105.599 E4.83496
G1 X134.346 Y105.996 E4.84468
G1 X134.662 Y106.473 E4.85609
G1 X134.929 Y106.896 E4.86608
G1 X135.302 Y107.536 E4.88086
G1 X135.51 Y107.923 E4.88963
G1 X135.675 Y108.242 E4.89679
G1 X135.9 Y108.697 E4.90692
G1 X136.093 Y109.11 E4.91602
G1 X136.353 Y109.708 E4.92903
G1 X136.479 Y110.015 E4.93566
G1 X136.818 Y110.969 E4.95586
G1 X137.187 Y112.188 E4.98128
G1 X137.387 Y112.948 E4.99696
G1 X137.469 Y113.315 E5.00446
G1 X137.609 Y114.068 E5.01975
G1 X137.701 Y114.687 E5.03224
G1 X137.753 Y115.087 E5.04029
G1 X137.803 Y115.542 E5.04942
G1 X137.855 Y116.16 E5.0618
G1 X137.877 Y116.553 E5.06965
G1 X137.894 Y117.015 E5.07888
G1 X137.896 Y117.722 E5.09299
G1 X137.879 Y118.29 E5.10433
G1 X137.862 Y118.658 E5.11168
G1 X137.833 Y119.106 E5.12064
G1 X137.775 Y119.748 E5.1335
G1 X137.723 Y120.173 E5.14205
G1 X137.66 Y120.615 E5.15096
G1 X137.558 Y121.21 E5.163
G1 X137.459 Y121.702 E5.17302
G1 X137.367 Y122.117 E5.1815
G1 X137.249 Y122.602 E5.19146
G1 X137.075 Y123.239 E5.20464
G1 X136.966 Y123.596 E5.21209
G1 X136.8 Y124.108 E5.22283
G1 X136.556 Y124.784 E5.23717
G1 X136.39 Y125.198 E5.24607
G1 X136.256 Y125.517 E5.25298
G1 X136.075 Y125.929 E5.26196
G1 X135.896 Y126.314 E5.27043
G1 X135.754 Y126.605 E5.27689
G1 X135.58 Y126.945 E5.28452
G1 X135.349 Y127.378 E5.29431
G1 X135.06 Y127.886 E5.30597
G1 X134.574 Y128.658 E5.32418
G1 X134.328 Y129.027 E5.33303
G1 X134.052 Y129.421 E5.34263
G1 X133.806 Y129.756 E5.35092
G1 X133.565 Y130.071 E5.35884
G1 X133.292 Y130.415 E5.3676
G1 X132.832 Y130.956 E5.38177
G1 X132.361 Y131.47 E5.39569
G1 X132.057 Y131.788 E5.40446
G1 X131.743 Y132.103 E5.41334
G1 X131.507 Y132.33 E5.41988
G1 X131.248 Y132.571 E5.42694
G1 X130.9 Y132.884 E5.43628
G1 X130.36 Y133.338 E5.45035
G1 X129.94 Y133.663 E5.46095
G1 X129.394 Y134.069 E5.47453
G1 X128.988 Y134.357 E5.48446
G1 X128.78 Y134.497 E5.48947
G1 X128.515 Y134.669 E5.49577
G1 X128.109 Y134.925 E5.50535
G1 X127.501 Y135.281 E5.51941
G1 X127.113 Y135.491 E5.52822
G1 X126.766 Y135.671 E5.53602
G1 X126.309 Y135.897 E5.54619
G1 X125.912 Y136.083 E5.55494
G1 X125.563 Y136.238 E5.56256
G1 X124.957 Y136.49 E5.57566
G1 X124.345 Y136.718 E5.58869
G1 X123.906 Y136.866 E5.59794
G1 X123.522 Y136.987 E5.60597
G1 X122.987 Y137.145 E5.6171
G1 X122.565 Y137.26 E5.62583
G1 X122.31 Y137.324 E5.63108
G1 X121.963 Y137.405 E5.63819
G1 X121.485 Y137.508 E5.64795
G1 X120.843 Y137.626 E5.66097
G1 X120.494 Y137.679 E5.66802
G1 X120.072 Y137.734 E5.67651
G1 X119.468 Y137.801 E5.68864
G1 X118.591 Y137.87 E5.70619
G1 X114.7 Y138.069 E5.78394
G1 X112.189 Y138.284 E5.83424
G1 X109.724 Y138.566 E5.88375
G1 X107.174 Y138.93 E5.93515
G1 X104.687 Y139.358 E5.98551
G1 X102.212 Y139.855 E6.03589
G1 X99.809 Y140.41 E6.08511
G1 X97.931 Y140.911 E6.1239
G1 X96.397 Y141.304 E6.1555
G1 X95.906 Y141.418 E6.16556
G1 X95.314 Y141.54 E6.17762
G1 X94.687 Y141.65 E6.19032
G1 X94.361 Y141.697 E6.1969
G1 X94.005 Y141.742 E6.20406
G1 X93.422 Y141.806 E6.21576
G1 X92.855 Y141.855 E6.22712
G1 X92.434 Y141.878 E6.23553
G1 X91.876 Y141.898 E6.24667
G1 X91.136 Y141.899 E6.26144
G1 X90.529 Y141.874 E6.27357
G1 X89.858 Y141.829 E6.28699
G1 X89.37 Y141.785 E6.29676
G1 X88.841 Y141.724 E6.30739
G1 X88.366 Y141.657 E6.31696
G1 X87.664 Y141.534 E6.33119
G1 X87.165 Y141.429 E6.34136
G1 X86.818 Y141.35 E6.34846
G1 X85.889 Y141.113 E6.3676
G1 X85.383 Y140.961 E6.37814
G1 X84.89 Y140.8 E6.38849
G1 X84.404 Y140.628 E6.39878
G1 X84.126 Y140.522 E6.40472
G1 X83.685 Y140.343 E6.41421
G1 X82.941 Y140.015 E6.43044
G1 X82.706 Y139.905 E6.43562
G1 X82.275 Y139.691 E6.44522
G1 X81.669 Y139.373 E6.45888
G1 X81.133 Y139.072 E6.47115
G1 X80.95 Y138.962 E6.47541
G1 X80.598 Y138.741 E6.4837
G1 X80.11 Y138.421 E6.49535
G1 X79.647 Y138.099 E6.5066
G1 X79.206 Y137.775 E6.51752
G1 X78.869 Y137.517 E6.52599
G1 X78.636 Y137.331 E6.53194
G1 X78.245 Y137.003 E6.54213
G1 X77.894 Y136.694 E6.55146
G1 X77.614 Y136.439 E6.55902
G1 X77.3 Y136.142 E6.56764
G1 X76.897 Y135.74 E6.579
G1 X76.521 Y135.344 E6.5899
G1 X76.109 Y134.889 E6.60215
G1 X75.697 Y134.399 E6.61492
G1 X75.2 Y133.762 E6.63105
G1 X75.077 Y133.596 E6.63517
G1 X74.879 Y133.32 E6.64195
G1 X74.557 Y132.855 E6.65324
G1 X74.282 Y132.436 E6.66324
G1 X74.004 Y131.991 E6.67371
G1 X73.682 Y131.439 E6.68646
G1 X73.558 Y131.211 E6.69164
G1 X73.385 Y130.879 E6.69911
G1 X72.963 Y130.013 E6.71834
G1 X72.824 Y129.705 E6.72508
G1 X72.627 Y129.243 E6.7351
G1 X72.491 Y128.911 E6.74226
G1 X72.16 Y127.981 E6.76196
G1 X71.871 Y127.032 E6.78176
G1 X71.71 Y126.446 E6.79389
G1 X71.642 Y126.166 E6.79964
G1 X71.563 Y125.81 E6.80691
G1 X71.459 Y125.307 E6.81716
G1 X71.341 Y124.628 E6.83092
G1 X71.266 Y124.06 E6.84235
G1 X71.197 Y123.443 E6.85474
G1 X71.145 Y122.855 E6.86652
G1 X71.122 Y122.432 E6.87497
G1 X71.102 Y121.872 E6.88616
G1 X71.102 Y121.112 E6.90132
G1 X71.126 Y120.53 E6.91295
